X: 1
T:My Love is Newly Listed
M:6/8
L:1/8
K:D
(B|=c)>(ee>)f|g>(ee)>(d|c)>(AA)>=(^GA3)(B|=c)>ee>(f|g)>fa>g|f>(dd)c|d2z(
B|=c)>ee>(f|g)>fa>(g|f)(dd)>ef/2|g3f|e<A=c>(d|e)>f(g/2f)>(d|e)>(cA/2)A>A
|A3||
